ui/StatusQ/src/assets/img/icons/status.svg

<svg fill="none" height="24" viewBox="0 0 24 24" width="24" xmlns="http://www.w3.org/2000/svg"><g fill="#000"><path d="m12.0604 11.7829c.5516.0594 1.1032.1188 1.7813.0798 1.8377-.106 2.9509-1.0828 2.8718-2.54258-.0803-1.48521-1.5614-2.40011-3.0432-2.31461-2.4147.13952-4.19039 2.33438-4.39065 4.84339.32791-.078.66208-.1268.99855-.1457.6786-.0392 1.2304.0203 1.7822.0797z"/><path d="m7.28357 14.8287c.07704 1.3898 1.49569 2.2463 2.91523 2.1661 2.3134-.1303 4.0144-2.1846 4.2059-4.5327-.3143.0731-.6344.1187-.9565.1364-.6499.0367-1.1785-.0189-1.7071-.0746-.5284-.0556-1.0568-.1112-1.7064-.0746-1.76039.0992-2.82689 1.0132-2.75113 2.3794z"/><path clip-rule="evenodd" d="m22 12c0 5.5228-4.4772 10-10 10-5.52285 0-10-4.4772-10-10 0-5.52285 4.47715-10 10-10 5.5228 0 10 4.47715 10 10zm-1.5 0c0 4.6944-3.8056 8.5-8.5 8.5-4.69442 0-8.5-3.8056-8.5-8.5 0-4.69442 3.80558-8.5 8.5-8.5 4.6944 0 8.5 3.80558 8.5 8.5z" fill-rule="evenodd"/></g></svg>

<svg width="24" height="24" viewBox="0 0 24 24" fill="none" xmlns="http://www.w3.org/2000/svg">
<path d="M12.0604 11.7829C12.612 11.8423 13.1636 11.9017 13.8417 11.8627C15.6794 11.7567 16.7926 10.7799 16.7135 9.32012C16.6332 7.83491 15.1521 6.92001 13.6703 7.00551C11.2556 7.14503 9.47991 9.33989 9.27965 11.8489C9.60756 11.7709 9.94173 11.7221 10.2782 11.7032C10.9568 11.664 11.5086 11.7235 12.0604 11.7829Z" fill="black"/>
<path d="M7.28357 14.8287C7.36061 16.2185 8.77926 17.075 10.1988 16.9948C12.5122 16.8645 14.2132 14.8102 14.4047 12.4621C14.0904 12.5352 13.7703 12.5808 13.4482 12.5985C12.7983 12.6352 12.2697 12.5796 11.7411 12.5239C11.2127 12.4683 10.6843 12.4127 10.0347 12.4493C8.27431 12.5485 7.20781 13.4625 7.28357 14.8287Z" fill="black"/>
<path fill-rule="evenodd" clip-rule="evenodd" d="M22 12C22 17.5228 17.5228 22 12 22C6.47715 22 2 17.5228 2 12C2 6.47715 6.47715 2 12 2C17.5228 2 22 6.47715 22 12ZM20.5 12C20.5 16.6944 16.6944 20.5 12 20.5C7.30558 20.5 3.5 16.6944 3.5 12C3.5 7.30558 7.30558 3.5 12 3.5C16.6944 3.5 20.5 7.30558 20.5 12Z" fill="black"/>
</svg>
